packages/components/Atoms/Icon/assets/img/rpl_icon_email_solid.svg

<svg width="20" height="15" overflow="visible" xmlns="http://www.w3.org/2000/svg"><path d="M1 0a1 1 0 00-1 1v13c0 .554.447 1 1 1h18a1 1 0 001-1V1a1 1 0 00-1-1H1zm16 2.999V5l-7 3.022L3 5V2.999L10 6l7-3.001z" fill="inherit"/></svg>

<svg width="20" height="15" viewBox="0 0 20 15" overflow="visible" xmlns="http://www.w3.org/2000/svg">
  <path d="M1 0C0.447 0 0 0.447 0 1V14C0 14.554 0.447 15 1 15H19C19.552 15 20 14.554 20 14V1C20 0.447 19.552 0 19 0H1ZM17 2.999V5L10 8.022L3 5V2.999L10 6L17 2.999Z"
    fill="inherit" />
</svg>
